X:1
T:Some One Is Hitting the Home Trail Tonight
T:Some One Is Hitting the Home Trail Tonight
T:Carrie Booker Person
T:Grace Stoddard Dennstedt, 1921
T:Public Domain Courtesy of the Cyber Hymnal™
T:Public Domain Courtesy of the Cyber Hymnal™
C:Carrie Booker Person
Z:Public Domain
Z:Courtesy of the Cyber Hymnal™
%%score 1 ( 2 3 )
L:1/8
Q:1/4=102
M:4/4
K:Bb
V:1 treble 
V:2 bass 
V:3 bass 
V:1
 [B,D][CE] | [DF]2 [Fd]2 [Fd]2 [=E^c][Fd] | [GB]2 [FA][EG] [DF]2 ([B,D][CE]) | %3
w: 1.~There’s a|road that leads to the|vale of des- pair, A *|
w: 2.~O trail|that winds on to the|glor- i- ous goal, To *|
w: 3.~The trail|that leads home is the|best way to take, The *|
 [DF]2 [DB][FB] [FB]2 [FA][=EB] | [Fc]2 [=Ec][Ed] !fermata![_Ec]2 ([B,D][CE]) | %5
w: road all en- shroud- ed with|wor- ry and care; An- *|
w: Heav- en at last, the bright|home of the soul; For *|
w: path of the wick- ed we|long to for- sake; At~the *|
 [DF]2 [Fd][Fd] [Fd]2 [Ec][Fd] | [GB]2 [Gc][Gd] !fermata![Ge]2 [Ge]2 | %7
w: o- ther that leads up to|glo- ry and light, Thank|
w: some one stands rea- dy to|win in the fight, And|
w: end of the trail there are|man- sions of light, For|
 [Fd]2 [Fd][Fe] [Fd] [DB]2 [Fd] | [Ec]2 [EG][EA] [DB]4 || %9
w: God, we are hit- ting the|home trail to- night.|
w: some- one is hit- ting the|home trail to- night.|
w: those who are hit- ting the|home trail to- night.|
"^Refrain" [Fd] [Fd]2 [Fd] [Fd]2 [Ec][DB] | [Fd]6 z2 | [Ae] [Ae]2 [Ae] [Ae]2 [Fc][Fd] | [Ee]6 z2 | %13
w: ||||
w: Hit- ting the home trail to-|night,|Hit- ting the home trail to-|night;|
w: ||||
 [DF] [DF]2 [EG] [DB]3 [Fc] | [Fd] [Fd]2 [Fe] [Bf]4 | [Fd] [Fd]2 [Ge] [Fd] [DB]2 [Fd] | %16
w: |||
w: An- gels smile on the|beau- ti- ful sight,|Some- one is hit- ting the|
w: |||
 [Ec]2 [EG][EA] [DB]4 |] %17
w: |
w: home trail to- night.|
w: |
V:2
 [B,,F,][B,,F,] | [B,,B,]2 [B,,B,]2 [B,,B,]2 [B,,B,][B,,B,] | %2
w: ~ ~|~ ~ ~ ~ ~|
 [E,B,]2 [E,B,][E,B,] [E,B,]2 [B,,F,]2 | [B,,B,]2 [B,,F,][D,B,] [D,B,]2 [C,C][C,B,] | %4
w: ~ ~ ~ ~ ~|~ ~ ~ ~ ~ ~|
 [F,A,]2 [C,G,][C,B,] !fermata![F,A,]2 [B,,F,]2 | [B,,B,]2 [B,,B,][B,,B,] [B,,B,]2 [F,A,]B, | %6
w: ~ ~ ~ ~ ~|~ ~ ~ ~ ~ ~|
 [E,B,]2 [E,B,][D,=B,] [C,C]2 [E,B,]2 | [B,,B,]2 [B,,B,][B,,B,] [B,,B,] [B,,F,]2 [B,,B,] | %8
w: ~ ~ ~ ~ ~|~ ~ ~ ~ ~ ~|
 [F,A,]2 [F,C][F,C] [B,,B,]4 || [B,,B,] [B,,B,]2 [B,,B,] [B,,B,]2 [B,,F,][B,,F,] | %10
w: ~ ~ ~ ~|~ ~ ~ ~ ~ the|
 [B,,B,] [D,B,]2 [F,B,] [B,,B,]2 z2 | [F,C] [F,C]2 [F,C] [F,C]2 [F,A,][F,B,] | %12
w: home trail to- night|~ ~ ~ ~ ~ the|
 [F,C] [A,C]2 [G,B,] [F,A,]2 z2 | [B,,B,] [B,,B,]2 [B,,B,] [B,,F,]3 [F,A,] | B, B,2 [B,C] [B,D]4 | %15
w: home trail to- night;|||
 [B,,B,] [B,,B,]2 [B,,B,] [B,,B,] [B,,F,]2 [B,,B,] | [F,A,]2 [F,C][F,C] [B,,B,]4 |] %17
w: ||
V:3
 x2 | x8 | x8 | x8 | x8 | x7 B, | x8 | x8 | x8 || x8 | x8 | x8 | x8 | x8 | B, B,2 x5 | x8 | x8 |] %17

